app/images/icon/vk.svg

<svg width="38" height="38" viewBox="0 0 38 38" fill="none" xmlns="http://www.w3.org/2000/svg">
<circle cx="19" cy="19" r="18.5" fill="white" stroke="#5181B8"/>
<path fill-rule="evenodd" clip-rule="evenodd" d="M26.6329 15.6094C26.7442 15.2582 26.6329 15 26.1035 15H24.3531C23.908 15 23.703 15.223 23.5917 15.4689C23.5917 15.4689 22.7015 17.5239 21.4404 18.8587C21.0325 19.2452 20.847 19.368 20.6245 19.368C20.5132 19.368 20.3522 19.2452 20.3522 18.8939V15.6094C20.3522 15.1878 20.223 15 19.8521 15H17.1014C16.8234 15 16.6561 15.1956 16.6561 15.3811C16.6561 15.7808 17.2865 15.8729 17.3515 16.9969V19.4384C17.3515 19.9737 17.2495 20.0708 17.0269 20.0708C16.4335 20.0708 14.9902 18.0065 14.134 15.6446C13.9662 15.1854 13.7979 15 13.3505 15H11.6001C11.1 15 11 15.223 11 15.4689C11 15.9081 11.5935 18.0861 13.7631 20.9665C15.2097 22.9335 17.2475 24 19.1019 24C20.2147 24 20.3522 23.7632 20.3522 23.3552V21.8684C20.3522 21.3947 20.4576 21.3002 20.8098 21.3002C21.0696 21.3002 21.5146 21.4232 22.5532 22.3716C23.74 23.4955 23.9355 24 24.6032 24H26.3536C26.8537 24 27.1038 23.7632 26.9595 23.2957C26.8017 22.8299 26.2351 22.1542 25.4831 21.3529C25.0752 20.8962 24.4631 20.4044 24.2779 20.1585C24.0182 19.8424 24.0923 19.7019 24.2779 19.421C24.2779 19.421 26.4103 16.5756 26.6329 15.6095V15.6094Z" fill="#5181B8"/>
</svg>

<svg width="38" height="38" fill="none" xmlns="http://www.w3.org/2000/svg">
    <circle cx="19" cy="19" r="18.5" fill="#fff" stroke="#5181B8"/>
    <path fill-rule="evenodd" clip-rule="evenodd" d="M26.633 15.61c.111-.352 0-.61-.53-.61h-1.75c-.445 0-.65.223-.761.469 0 0-.89 2.055-2.152 3.39-.408.386-.593.509-.816.509-.11 0-.272-.123-.272-.474v-3.285c0-.421-.129-.609-.5-.609h-2.75c-.279 0-.446.196-.446.381 0 .4.63.492.696 1.616v2.441c0 .536-.102.633-.325.633-.594 0-2.037-2.065-2.893-4.426-.168-.46-.336-.645-.784-.645H11.6c-.5 0-.6.223-.6.469 0 .44.594 2.617 2.763 5.498C15.21 22.933 17.247 24 19.102 24c1.113 0 1.25-.237 1.25-.645v-1.487c0-.473.106-.568.458-.568.26 0 .705.123 1.743 1.072C23.74 23.495 23.936 24 24.603 24h1.75c.5 0 .75-.237.606-.704-.157-.466-.724-1.142-1.476-1.943-.408-.457-1.02-.949-1.205-1.195-.26-.316-.186-.456 0-.737 0 0 2.132-2.845 2.355-3.811Z" fill="#5181B8"/>
</svg>
